X: 42276
T: Weaver And His Wife, The
R: jig
M: 6/8
K: Amajor
E2 E EAB|c3 A3|c3 A2 c|edc B3|
E2 E EBc|d3 B3|E2 e dcB|ABA:|
EAc e3|EAe c3|EAc edc|d3- dBc|
Ded BdB|G3 F3|E2 e dcB|ABA:|

